src/ui/cloud-upload.svg

<?xml version="1.0" encoding="UTF-8"?><svg xmlns="http://www.w3.org/2000/svg" viewBox="0 0 32 32"><defs><style>.uuid-0bbda514-f2e4-4341-89ec-dfb73cf39b27{fill:none;}.uuid-0bbda514-f2e4-4341-89ec-dfb73cf39b27,.uuid-5abd4896-337f-420b-82f8-67369ffbe044{stroke-width:0px;}.uuid-5abd4896-337f-420b-82f8-67369ffbe044{fill:#151515;}</style></defs><g id="uuid-07a9ca73-712b-47ba-b8e3-f36e2aa054e3"><rect class="uuid-0bbda514-f2e4-4341-89ec-dfb73cf39b27" width="32" height="32"/></g><g id="uuid-ed8bcecb-f571-478d-bb5a-6187919f6832"><path class="uuid-5abd4896-337f-420b-82f8-67369ffbe044" d="M27.9971,13.2285c.002-.0771.0029-.1533.0029-.2285,0-5.5142-4.4863-10-10-10-4.0703,0-7.6641,2.4199-9.2139,6.1104-.4238-.0732-.8535-.1104-1.2861-.1104-4.1357,0-7.5,3.3643-7.5,7.5s3.3643,7.5,7.5,7.5h4.5c.5527,0,1-.4478,1-1s-.4473-1-1-1h-4.5c-3.0322,0-5.5-2.4673-5.5-5.5s2.4678-5.5,5.5-5.5c.5518,0,1.0977.082,1.624.2441.5273.1592,1.083-.1323,1.248-.6553,1.0547-3.3428,4.1201-5.5889,7.6279-5.5889,4.4111,0,8,3.5889,8,8,0,.3145-.0234.623-.0586.9282-.0312.2666.0459.5347.2148.7437s.4141.3413.6816.3672c1.8027.1758,3.1621,1.6636,3.1621,3.4609,0,1.9297-1.5703,3.5-3.5,3.5h-4.5c-.5527,0-1,.4478-1,1s.4473,1,1,1h4.5c3.0322,0,5.5-2.4673,5.5-5.5,0-2.5-1.6641-4.6191-4.0029-5.2715Z"/><path class="uuid-5abd4896-337f-420b-82f8-67369ffbe044" d="M21.293,18.707c.1953.1953.4512.293.707.293s.5117-.0977.707-.293c.3906-.3906.3906-1.0234,0-1.4141l-4.6465-4.6465c-.584-.585-1.5371-.585-2.1211,0l-4.6465,4.6465c-.3906.3906-.3906,1.0234,0,1.4141s1.0234.3906,1.4141,0l3.293-3.293v12.5859c0,.5522.4473,1,1,1s1-.4478,1-1v-12.5859l3.293,3.293Z"/></g></svg>

<svg xmlns="http://www.w3.org/2000/svg" viewBox="0 0 32 32">
  <defs>
    <style>
      .uuid-5abd4896-337f-420b-82f8-67369ffbe044{stroke-width:0;fill:#151515}
    </style>
  </defs>
  <path d="M0 0h32v32H0z" id="uuid-07a9ca73-712b-47ba-b8e3-f36e2aa054e3" stroke-width="0" fill="none"/>
  <g id="uuid-ed8bcecb-f571-478d-bb5a-6187919f6832">
    <path class="uuid-5abd4896-337f-420b-82f8-67369ffbe044" d="M27.997 13.229A8.81 8.81 0 0 0 28 13c0-5.514-4.486-10-10-10a9.956 9.956 0 0 0-9.214 6.11A7.552 7.552 0 0 0 7.5 9C3.364 9 0 12.364 0 16.5S3.364 24 7.5 24H12a1 1 0 1 0 0-2H7.5A5.506 5.506 0 0 1 2 16.5a5.506 5.506 0 0 1 7.124-5.256 1.002 1.002 0 0 0 1.248-.655A7.966 7.966 0 0 1 18 4.999c4.411 0 8 3.59 8 8 0 .315-.023.624-.059.93a.998.998 0 0 0 .897 1.11A3.476 3.476 0 0 1 30 18.499c0 1.93-1.57 3.5-3.5 3.5H22a1 1 0 1 0 0 2h4.5c3.032 0 5.5-2.466 5.5-5.5a5.46 5.46 0 0 0-4.003-5.27Z"/>
    <path class="uuid-5abd4896-337f-420b-82f8-67369ffbe044" d="M21.293 18.707a.997.997 0 0 0 1.414 0 1 1 0 0 0 0-1.414l-4.646-4.647a1.501 1.501 0 0 0-2.122 0l-4.646 4.647a1 1 0 1 0 1.414 1.414L16 15.414V28a1 1 0 1 0 2 0V15.414l3.293 3.293Z"/>
  </g>
</svg>
